**harmony	**harte	**kern	**silbe	**kern	**silbe	**kern	**rhyme	**timestamp	**phrase
*M4/4	*M4/4	*ICvox	*	*ICvox	*	*ICbras	*	*	*
*	*	*VRlead	*	*VRharmonize	*	*	*	*	*
*	*	*Hstimme	*	*Nstimme	*	*Nstimme	*	*	*
*B-:	*B-:	*B-:	*	*B-:	*	*B-:	*	*	*
*	*	*M4/4	*	*M4/4	*	*M4/4	*	*	*
*	*	*clefG2	*	*clefG2	*	*clefG2	*	*	*
1r;	1r	r;	.	r;	.	r;	.	0	.
=1	=1	=1	=1	=1	=1	=1	=1	=1	=1
*>Letter>A	*>Letter>A	*>Letter>A	*>Letter>A	*>Letter>A	*>Letter>A	*>Letter>A	*>Letter>A	*>Letter>A	*>Letter>A
*>Label>Intro	*>Label>Intro	*>Label>Intro	*>Label>Intro	*>Label>Intro	*>Label>Intro	*>Label>Intro	*>Label>Intro	*>Label>Intro	*>Label>Intro
2FM	F:maj	1r	.	1r	.	1r	.	0.116	newline
2FMm	F:7	.	.	.	.	.	.	1.141	.
=2	=2	=2	=2	=2	=2	=2	=2	=2	=2
1B-M	B-:maj	1r	.	1r	.	1r	.	2.167	newline
=3	=3	=3	=3	=3	=3	=3	=3	=3	=3
1B-M	B-:maj	1r	.	1r	.	1r	.	4.306	.
=4	=4	=4	=4	=4	=4	=4	=4	=4	=4
1B-M	B-:maj	1r	.	1r	.	1r	.	6.445	newline
=5	=5	=5	=5	=5	=5	=5	=5	=5	=5
1B-M	B-:maj	1r	.	1r	.	1r	.	8.577	.
=6	=6	=6	=6	=6	=6	=6	=6	=6	=6
*>Letter>B	*>Letter>B	*>Letter>B	*>Letter>B	*>Letter>B	*>Letter>B	*>Letter>B	*>Letter>B	*>Letter>B	*>Letter>B
*>Label>Verse	*>Label>Verse	*>Label>Verse	*>Label>Verse	*>Label>Verse	*>Label>Verse	*>Label>Verse	*>Label>Verse	*>Label>Verse	*>Label>Verse
1B-M	B-:maj	8d	Des-	1r	.	1r	.	10.709	newline
.	.	8d	-mond	.	.	.	.	.	.
.	.	8d	has	.	.	.	.	.	.
.	.	8d	a	.	.	.	.	.	.
.	.	8d	bar-	.	.	.	.	.	.
.	.	8d	-row	.	.	.	.	.	.
.	.	8c	in	.	.	.	.	.	.
.	.	8B-	the	.	.	.	.	.	.
=7	=7	=7	=7	=7	=7	=7	=7	=7	=7
1FMm	F:7	8A	mar-	1r	.	1r	.	12.88	.
.	.	8c	-ket	.	.	.	.	.	.
.	.	8r	.	.	.	.	.	.	.
.	.	4.c	place	.	.	.	A	.	.
.	.	8r	.	.	.	.	.	.	.
.	.	[8e-	Mo-	.	.	.	.	.	.
=8	=8	=8	=8	=8	=8	=8	=8	=8	=8
1FMm	F:7	8e-]	_	1r	.	1r	.	15.051	newline
.	.	8e-	-lly	.	.	.	.	.	.
.	.	8e-	is	.	.	.	.	.	.
.	.	8e-	the	.	.	.	.	.	.
.	.	8e-	sing-	.	.	.	.	.	.
.	.	8e-	-er	.	.	.	.	.	.
.	.	8d	in	.	.	.	.	.	.
.	.	8c	a	.	.	.	.	.	.
=9	=9	=9	=9	=9	=9	=9	=9	=9	=9
1B-M	B-:maj	4B-	band	1r	.	1r	B	17.165	.
.	.	4r	.	.	.	.	.	.	.
.	.	4r	.	.	.	.	.	.	.
.	.	8r	.	.	.	.	.	.	.
.	.	[8f	Des-	.	.	.	.	.	.
=10	=10	=10	=10	=10	=10	=10	=10	=10	=10
1B-M	B-:maj	8f]	_	1r	.	1r	.	19.279	newline
.	.	8f	-mond	.	.	.	.	.	.
.	.	8f	says	.	.	.	.	.	.
.	.	8f	to	.	.	.	.	.	.
.	.	8f	Mo-	.	.	.	.	.	.
.	.	8f	-lly	.	.	.	.	.	.
.	.	8e-	girl	.	.	.	.	.	.
.	.	8d	I	.	.	.	.	.	.
=11	=11	=11	=11	=11	=11	=11	=11	=11	=11
1E-M	E-:maj	8e-	like	1r	.	1r	.	21.403	.
.	.	8f	your	.	.	.	.	.	.
.	.	8r	.	.	.	.	.	.	.
.	.	4g	face	.	.	.	A	.	.
.	.	8g	and	.	.	.	.	.	.
.	.	8f	Mo-	.	.	.	.	.	.
.	.	8e-	-lly	.	.	.	.	.	.
=12	=12	=12	=12	=12	=12	=12	=12	=12	=12
2B-M	B-:maj	8d	says	1r	.	1r	.	23.528	newline
.	.	8d	this	.	.	.	.	.	.
.	.	8e-	as	.	.	.	.	.	.
.	.	8d	she	.	.	.	.	.	.
2FMm	F:7	8c	takes	.	.	.	.	24.586	.
.	.	8e-	him	.	.	.	.	.	.
.	.	8d	by	.	.	.	.	.	.
.	.	16c	the	.	.	.	.	.	.
.	.	[16B-	hand	.	.	.	B	.	.
=13	=13	=13	=13	=13	=13	=13	=13	=13	=13
1B-M	B-:maj	4B-]	_	2r	.	1r	.	25.643	.
.	.	4r	.	.	.	.	.	.	.
.	.	8r	.	8r	.	.	.	.	.
.	.	8B-	Ob-	8B-	Ob-	.	.	.	.
.	.	8d	-la-	8d	-la-	.	.	.	.
.	.	8f	-di	8f	-di	.	.	.	.
=14	=14	=14	=14	=14	=14	=14	=14	=14	=14
*>Letter>C	*>Letter>C	*>Letter>C	*>Letter>C	*>Letter>C	*>Letter>C	*>Letter>C	*>Letter>C	*>Letter>C	*>Letter>C
*>Label>Chorus	*>Label>Chorus	*>Label>Chorus	*>Label>Chorus	*>Label>Chorus	*>Label>Chorus	*>Label>Chorus	*>Label>Chorus	*>Label>Chorus	*>Label>Chorus
1B-M	B-:maj	8r	.	8r	.	1r	.	27.758	newline
.	.	8B-	Ob-	8B-	Ob-	.	.	.	.
.	.	8d	-la-	8d	-la-	.	c	.	.
.	.	8f	-da	8f	-da	.	C	.	.
.	.	8r	.	8r	.	.	.	.	.
.	.	8B-	Life	8B-	Life	.	.	.	.
.	.	8d	goes	8d	goes	.	.	.	.
.	.	[8f	on	[8f	on	.	C	.	.
=15	=15	=15	=15	=15	=15	=15	=15	=15	=15
2Dm	D:min/b3	4.f]	_	4.f]	_	1r	.	29.879	.
.	.	4.b-	bra	4.b-	bra	.	C	.	.
2Gm	G:min	.	.	.	.	.	.	30.939	.
.	.	8r	.	8r	.	.	.	.	.
.	.	[8f	La	[8f	La	.	C	.	.
=16	=16	=16	=16	=16	=16	=16	=16	=16	=16
2B-M	B-:maj	8f]	_	8f]	_	1r	.	32	newline
.	.	16e-	la	16e-	la	.	c	.	.
.	.	16d	_	16d	_	.	.	.	.
.	.	8d	how	8d	how	.	.	.	.
.	.	8e-	the	8e-	the	.	.	.	.
2FM	F:maj	8d	life	8d	life	.	.	33.08	.
.	.	8c	goes	8c	goes	.	.	.	.
.	.	8B-	_	8B-	_	.	.	.	.
.	.	[8B-	on	[8B-	on	.	C	.	.
=17	=17	=17	=17	=17	=17	=17	=17	=17	=17
1B-M	B-:maj	8B-]	_	8B-]	_	1r	.	34.159	.
.	.	8r	.	8r	.	.	.	.	.
.	.	4r	.	4r	.	.	.	.	.
.	.	8r	.	8r	.	.	.	.	.
.	.	8B-	Ob-	8B-	Ob-	.	.	.	.
.	.	8d	-la-	8d	-la-	.	c	.	.
.	.	8f	-di	8f	-di	.	.	.	.
=18	=18	=18	=18	=18	=18	=18	=18	=18	=18
1B-M	B-:maj	8r	.	8r	.	1r	.	36.319	newline
.	.	8B-	Ob-	8B-	Ob-	.	.	.	.
.	.	8d	-la-	8d	-la-	.	c	.	.
.	.	8f	-da	8f	-da	.	C	.	.
.	.	8r	.	8r	.	.	.	.	.
.	.	8B-	Life	8B-	Life	.	.	.	.
.	.	8d	goes	8d	goes	.	.	.	.
.	.	[8f	on	[8f	on	.	C	.	.
=19	=19	=19	=19	=19	=19	=19	=19	=19	=19
2Dm	D:min/b3	4.f]	_	4.f]	_	1r	.	38.418	.
.	.	4b-	bra	4b-	bra	.	C	.	.
2Gm	G:min	.	.	.	.	.	.	39.468	.
.	.	8r	.	8r	.	.	.	.	.
.	.	8r	.	8r	.	.	.	.	.
.	.	[8f	La	[8f	La	.	C	.	.
=20	=20	=20	=20	=20	=20	=20	=20	=20	=20
2B-M	B-:maj	8f]	_	8f]	_	1r	.	40.518	newline
.	.	16e-	la	16e-	la	.	c	.	.
.	.	16d	_	16d	_	.	.	.	.
.	.	8d	how	8d	how	.	.	.	.
.	.	8e-	the	8e-	the	.	.	.	.
2FM	F:maj	8d	life	8d	life	.	.	41.565	.
.	.	8c	goes	8c	goes	.	.	.	.
.	.	8B-	_	8B-	_	.	.	.	.
.	.	[8B-	on	[8B-	on	.	C	.	.
=21	=21	=21	=21	=21	=21	=21	=21	=21	=21
1B-M	B-:maj	8B-]	_	8B-]	_	1r	.	42.611	.
.	.	8r	.	8r	.	.	.	.	.
.	.	4r	.	4r	.	.	.	.	.
.	.	2r	.	2r	.	.	.	.	.
=22	=22	=22	=22	=22	=22	=22	=22	=22	=22
*>Letter>B	*>Letter>B	*>Letter>B	*>Letter>B	*>Letter>B	*>Letter>B	*>Letter>B	*>Letter>B	*>Letter>B	*>Letter>B
*>Label>Verse	*>Label>Verse	*>Label>Verse	*>Label>Verse	*>Label>Verse	*>Label>Verse	*>Label>Verse	*>Label>Verse	*>Label>Verse	*>Label>Verse
1B-M	B-:maj	8d	Des-	1r	.	1r	.	44.705	newline
.	.	8d	-mond	.	.	.	.	.	.
.	.	8d	takes	.	.	.	.	.	.
.	.	8d	a	.	.	.	.	.	.
.	.	8d	tro-	.	.	.	.	.	.
.	.	8d	-lly	.	.	.	.	.	.
.	.	8c	to	.	.	.	.	.	.
.	.	8B-	the	.	.	.	.	.	.
=23	=23	=23	=23	=23	=23	=23	=23	=23	=23
1FMm	F:7	8A	jewel-	1r	.	1r	.	46.811	.
.	.	4c	-lers	.	.	.	.	.	.
.	.	4c	store	.	.	.	D	.	.
.	.	8r	.	.	.	.	.	.	.
.	.	8r	.	.	.	.	.	.	.
.	.	[8e-	Buys	.	.	.	.	.	.
=24	=24	=24	=24	=24	=24	=24	=24	=24	=24
1FMm	F:7	8e-]	_	1r	.	1r	.	48.918	newline
.	.	8e-	a	.	.	.	.	.	.
.	.	8e-	twen-	.	.	.	.	.	.
.	.	8e-	-ty	.	.	.	.	.	.
.	.	8e-	ca-	.	.	.	.	.	.
.	.	8e-	-rat	.	.	.	.	.	.
.	.	8d	gol-	.	.	.	.	.	.
.	.	8c	-den	.	.	.	.	.	.
=25	=25	=25	=25	=25	=25	=25	=25	=25	=25
1B-M	B-:maj	4B-	ring	1r	.	1r	E	50.994	.
.	.	8r	.	.	.	.	.	.	.
.	.	4b-	Ring	.	.	.	E	.	.
.	.	8r	.	.	.	.	.	.	.
.	.	8r	.	.	.	.	.	.	.
.	.	[8f	Takes	.	.	.	.	.	.
=26	=26	=26	=26	=26	=26	=26	=26	=26	=26
1B-M	B-:maj	8f]	_	1r	.	1r	.	53.07	newline
.	.	8f	it	.	.	.	.	.	.
.	.	8f	back	.	.	.	.	.	.
.	.	8f	to	.	.	.	.	.	.
.	.	8f	Mo-	.	.	.	.	.	.
.	.	8f	-lly	.	.	.	.	.	.
.	.	8e-	wait-	.	.	.	.	.	.
.	.	8d	-ing	.	.	.	.	.	.
=27	=27	=27	=27	=27	=27	=27	=27	=27	=27
1E-M	E-:maj	8e-	at	1r	.	1r	.	55.187	.
.	.	8f	the	.	.	.	.	.	.
.	.	8r	.	.	.	.	.	.	.
.	.	4g	door	.	.	.	D	.	.
.	.	8g	And	.	.	.	.	.	.
.	.	8f	as	.	.	.	.	.	.
.	.	8e-	he	.	.	.	.	.	.
=28	=28	=28	=28	=28	=28	=28	=28	=28	=28
2B-M	B-:maj	8d	gives	1r	.	1r	.	57.304	newline
.	.	8d	it	.	.	.	.	.	.
.	.	8e-	to	.	.	.	.	.	.
.	.	8d	her	.	.	.	.	.	.
2FMm	F:7	8c	she	.	.	.	.	58.368	.
.	.	16e-	be-	.	.	.	.	.	.
.	.	8.d	-gins	.	.	.	.	.	.
.	.	8c	to	.	.	.	.	.	.
=29	=29	=29	=29	=29	=29	=29	=29	=29	=29
1B-M	B-:maj	8B-	sing	2r	.	1r	E	59.431	.
.	.	8r	.	.	.	.	.	.	.
.	.	8r	.	.	.	.	.	.	.
.	.	8b-	sing	.	.	.	E	.	.
.	.	8r	.	8r	.	.	.	.	.
.	.	8B-	Ob-	8B-	Ob-	.	.	.	.
.	.	8d	-la-	8d	-la-	.	c	.	.
.	.	8f	-di	8f	-di	.	.	.	.
=30	=30	=30	=30	=30	=30	=30	=30	=30	=30
*>Letter>C	*>Letter>C	*>Letter>C	*>Letter>C	*>Letter>C	*>Letter>C	*>Letter>C	*>Letter>C	*>Letter>C	*>Letter>C
*>Label>Chorus	*>Label>Chorus	*>Label>Chorus	*>Label>Chorus	*>Label>Chorus	*>Label>Chorus	*>Label>Chorus	*>Label>Chorus	*>Label>Chorus	*>Label>Chorus
1B-M	B-:maj	8r	.	8r	.	1r	.	61.558	newline
.	.	8B-	Ob-	8B-	Ob-	.	.	.	.
.	.	8d	-la-	8d	-la-	.	c	.	.
.	.	8f	-da	8f	-da	.	C	.	.
.	.	8r	.	8r	.	.	.	.	.
.	.	8B-	Life	8B-	Life	.	.	.	.
.	.	8d	goes	8d	goes	.	.	.	.
.	.	[8f	on	[8f	on	.	C	.	.
=31	=31	=31	=31	=31	=31	=31	=31	=31	=31
2Dm	D:min/b3	4.f]	_	4.f]	_	1r	.	63.647	.
.	.	4.b-	bra	4.b-	bra	.	C	.	.
2Gm	G:min	.	.	.	.	.	.	64.692	.
.	.	8r	.	8r	.	.	.	.	.
.	.	[8f	La	[8f	La	.	C	.	.
=32	=32	=32	=32	=32	=32	=32	=32	=32	=32
2B-M	B-:maj	8f]	_	8f]	_	1r	.	65.736	newline
.	.	16e-	la	16e-	la	.	c	.	.
.	.	16d	_	16d	_	.	.	.	.
.	.	8d	how	8d	how	.	.	.	.
.	.	8e-	the	8e-	the	.	.	.	.
2FM	F:maj	8d	life	8d	life	.	.	66.8	.
.	.	8c	goes	8c	goes	.	.	.	.
.	.	8B-	_	8B-	_	.	.	.	.
.	.	[8B-	on	[8B-	on	.	C	.	.
=33	=33	=33	=33	=33	=33	=33	=33	=33	=33
1B-M	B-:maj	8B-]	_	8B-]	_	1r	.	67.863	.
.	.	8r	.	8r	.	.	.	.	.
.	.	4r	.	4r	.	.	.	.	.
.	.	8r	.	8r	.	.	.	.	.
.	.	8B-	Ob-	8B-	Ob-	.	.	.	.
.	.	8d	-la-	8d	-la-	.	c	.	.
.	.	8f	-di	8f	-di	.	.	.	.
=34	=34	=34	=34	=34	=34	=34	=34	=34	=34
1B-M	B-:maj	8r	.	8r	.	1r	.	69.991	newline
.	.	8B-	Ob-	8B-	Ob-	.	.	.	.
.	.	8d	-la-	8d	-la-	.	c	.	.
.	.	8f	-da	8f	-da	.	C	.	.
.	.	8r	.	8r	.	.	.	.	.
.	.	8B-	Life	8B-	Life	.	.	.	.
.	.	8d	goes	8d	goes	.	.	.	.
.	.	[8f	on	[8f	on	.	C	.	.
=35	=35	=35	=35	=35	=35	=35	=35	=35	=35
2Dm	D:min/b3	4.f]	_	4.f]	_	1r	.	72.103	.
.	.	4b-	bra	4b-	bra	.	C	.	.
2Gm	G:min	.	.	.	.	.	.	73.16	.
.	.	8r	.	8r	.	.	.	.	.
.	.	8r	.	8r	.	.	.	.	.
.	.	[8f	La	[8f	La	.	C	.	.
=36	=36	=36	=36	=36	=36	=36	=36	=36	=36
2B-M	B-:maj	8f]	_	8f]	_	1r	.	74.216	newline
.	.	16e-	la	16e-	la	.	c	.	.
.	.	16d	_	16d	_	.	.	.	.
.	.	8d	how	8d	how	.	.	.	.
.	.	8e-	the	8e-	the	.	.	.	.
2FM	F:maj	8d	life	8d	life	.	.	75.272	.
.	.	8c	goes	8c	goes	.	.	.	.
.	.	8B-	_	8B-	_	.	.	.	.
.	.	[8B-	on	[8B-	on	.	C	.	.
=37	=37	=37	=37	=37	=37	=37	=37	=37	=37
1B-M	B-:maj	8B-]	_	8B-]	_	1r	.	76.328	.
.	.	8r	.	8r	.	.	.	.	.
.	.	4r	.	4r	.	.	.	.	.
.	.	8r	.	2r	.	.	.	.	.
.	.	16d	yeah	.	.	.	.	.	.
.	.	16c	_	.	.	.	.	.	.
.	.	8B-	_	.	.	.	.	.	.
.	.	8r	.	.	.	.	.	.	.
=38	=38	=38	=38	=38	=38	=38	=38	=38	=38
*>Letter>D	*>Letter>D	*>Letter>D	*>Letter>D	*>Letter>D	*>Letter>D	*>Letter>D	*>Letter>D	*>Letter>D	*>Letter>D
*>Label>Bridge	*>Label>Bridge	*>Label>Bridge	*>Label>Bridge	*>Label>Bridge	*>Label>Bridge	*>Label>Bridge	*>Label>Bridge	*>Label>Bridge	*>Label>Bridge
1E-M	E-:maj	8r	.	1r	.	1r	.	78.44	newline
.	.	16B-	In	.	.	.	.	.	.
.	.	16B-	a	.	.	.	.	.	.
.	.	16e-	cou-	.	.	.	.	.	.
.	.	16e-	-ple	.	.	.	.	.	.
.	.	8f	of	.	.	.	.	.	.
.	.	4g	years	.	.	.	.	.	.
.	.	8f	they	.	.	.	.	.	.
.	.	8g	have	.	.	.	.	.	.
=39	=39	=39	=39	=39	=39	=39	=39	=39	=39
1E-M	E-:maj	8b-	built	1r	.	1r	.	80.549	.
.	.	8r	.	.	.	.	.	.	.
.	.	8e-	a	.	.	.	.	.	.
.	.	8g	home	.	.	.	F	.	.
.	.	8r	.	.	.	.	.	.	.
.	.	4B-	sweet	.	.	.	.	.	.
.	.	8d	home	.	.	.	F	.	.
=40	=40	=40	=40	=40	=40	=40	=40	=40	=40
2B-M	B-:maj	1r	.	1r	.	8d	.	82.658	newline
.	.	.	.	.	.	4d	.	.	.
.	.	.	.	.	.	8d	.	.	.
2B-M	B-:sus4(9)	.	.	.	.	8c	.	83.706	.
.	.	.	.	.	.	4c	.	.	.
.	.	.	.	.	.	8c	.	.	.
=41	=41	=41	=41	=41	=41	=41	=41	=41	=41
2B-M	B-:maj	1r	.	1r	.	8B-	.	84.754	.
.	.	.	.	.	.	4B-	.	.	.
.	.	.	.	.	.	8B-	.	.	.
2B-Mm	B-:9	.	.	.	.	8A-	.	85.802	.
.	.	.	.	.	.	4A-	.	.	.
.	.	.	.	.	.	8A-	.	.	.
=42	=42	=42	=42	=42	=42	=42	=42	=42	=42
1E-M	E-:maj	8r	.	1r	.	1G	.	86.85	newline
.	.	16B-	With	.	.	.	.	.	.
.	.	16B-	a	.	.	.	.	.	.
.	.	16e-	cou-	.	.	.	.	.	.
.	.	16e-	-ple	.	.	.	.	.	.
.	.	8f	of	.	.	.	.	.	.
.	.	8g	kids	.	.	.	.	.	.
.	.	8r	.	.	.	.	.	.	.
.	.	8f	run-	.	.	.	.	.	.
.	.	8g	-ning	.	.	.	.	.	.
=43	=43	=43	=43	=43	=43	=43	=43	=43	=43
1E-M	E-:maj	8b-	in	1r	.	1r	.	88.955	.
.	.	8r	.	.	.	.	.	.	.
.	.	8e-	the	.	.	.	.	.	.
.	.	4g	yard	.	.	.	.	.	.
.	.	8r	.	.	.	.	.	.	.
.	.	8r	.	.	.	.	.	.	.
.	.	8B-	Of	.	.	.	.	.	.
=44	=44	=44	=44	=44	=44	=44	=44	=44	=44
1B-M	B-:maj/5	8d	Des-	1r	.	1r	.	91.06	newline
.	.	8d	-mond	.	.	.	.	.	.
.	.	8d	and	.	.	.	.	.	.
.	.	4e-	Mo-	.	.	.	.	.	.
.	.	4d	-lly	.	.	.	.	.	.
.	.	8d	Jones	.	.	.	F	.	.
=45	=45	=45	=45	=45	=45	=45	=45	=45	=45
1FMm	F:7	4c	_	1r	.	1r	.	93.179	.
.	.	4r	.	.	.	.	.	.	.
.	.	2r	.	.	.	.	.	.	.
=46	=46	=46	=46	=46	=46	=46	=46	=46	=46
*>Letter>B	*>Letter>B	*>Letter>B	*>Letter>B	*>Letter>B	*>Letter>B	*>Letter>B	*>Letter>B	*>Letter>B	*>Letter>B
*>Label>Verse	*>Label>Verse	*>Label>Verse	*>Label>Verse	*>Label>Verse	*>Label>Verse	*>Label>Verse	*>Label>Verse	*>Label>Verse	*>Label>Verse
1B-M	B-:maj	8d	Ha-	1r	.	1r	.	95.298	newline
.	.	8d	-ppy	.	.	.	.	.	.
.	.	8d	e-	.	.	.	.	.	.
.	.	8d	-ver	.	.	.	.	.	.
.	.	8d	af-	.	.	.	.	.	.
.	.	8d	-ter	.	.	.	.	.	.
.	.	8c	in	.	.	.	.	.	.
.	.	8B-	the	.	.	.	.	.	.
=47	=47	=47	=47	=47	=47	=47	=47	=47	=47
1FMm	F:7	8A	mar-	1r	.	1r	.	97.421	.
.	.	8c	-ket	.	.	.	.	.	.
.	.	8r	.	.	.	.	.	.	.
.	.	4.c	place	.	.	.	A	.	.
.	.	8r	.	.	.	.	.	.	.
.	.	[8e-	Des-	.	.	.	.	.	.
=48	=48	=48	=48	=48	=48	=48	=48	=48	=48
1FMm	F:7	8e-]	_	1r	.	1r	.	99.545	newline
.	.	8e-	-mond	.	.	.	.	.	.
.	.	8e-	lets	.	.	.	.	.	.
.	.	8e-	the	.	.	.	.	.	.
.	.	8e-	chil-	.	.	.	.	.	.
.	.	8e-	-dren	.	.	.	.	.	.
.	.	8d	lend	.	.	.	.	.	.
.	.	8c	a	.	.	.	.	.	.
=49	=49	=49	=49	=49	=49	=49	=49	=49	=49
1B-M	B-:maj	4B-	hand	1r	.	1r	B	101.648	.
.	.	4r	.	.	.	.	.	.	.
.	.	4r	.	.	.	.	.	.	.
.	.	8r	.	.	.	.	.	.	.
.	.	[8f	Mo-	.	.	.	.	.	.
=50	=50	=50	=50	=50	=50	=50	=50	=50	=50
1B-M	B-:maj	8f]	_	1r	.	1r	.	103.751	newline
.	.	8f	-lly	.	.	.	.	.	.
.	.	8f	stays	.	.	.	.	.	.
.	.	8f	at	.	.	.	.	.	.
.	.	8f	home	.	.	.	.	.	.
.	.	8f	and	.	.	.	.	.	.
.	.	8e-	does	.	.	.	.	.	.
.	.	8d	her	.	.	.	.	.	.
=51	=51	=51	=51	=51	=51	=51	=51	=51	=51
1E-M	E-:maj	8e-	pre-	1r	.	1r	.	105.845	.
.	.	8f	-tty	.	.	.	.	.	.
.	.	8r	.	.	.	.	.	.	.
.	.	4g	face	.	.	.	A	.	.
.	.	8g	And	.	.	.	.	.	.
.	.	8f	in	.	.	.	.	.	.
.	.	8e-	the	.	.	.	.	.	.
=52	=52	=52	=52	=52	=52	=52	=52	=52	=52
2B-M	B-:maj	8d	eve-	1r	.	1r	.	107.938	newline
.	.	8d	-ning	.	.	.	.	.	.
.	.	8e-	she	.	.	.	.	.	.
.	.	8d	still	.	.	.	.	.	.
2FMm	F:7	8c	sing-	.	.	.	.	109.013	.
.	.	8e-	-ing	.	.	.	.	.	.
.	.	8d	with	.	.	.	.	.	.
.	.	16c	the	.	.	.	.	.	.
.	.	[16B-	band	.	.	.	B	.	.
=53	=53	=53	=53	=53	=53	=53	=53	=53	=53
1B-M	B-:maj	4B-]	_	2r	.	8r	.	110.088	.
.	.	.	.	.	.	8B-	.	.	.
.	.	8r	.	.	.	4d	.	.	.
.	.	4f	Yes!	.	.	.	.	.	.
.	.	.	.	8r	.	8f	.	.	.
.	.	8f	Oob-	8B-	Ob-	4g	.	.	.
.	.	8f	-la-	8d	-la-	.	c	.	.
.	.	8f	-di	8f	-di	[8b-	.	.	.
=54	=54	=54	=54	=54	=54	=54	=54	=54	=54
*>Letter>C	*>Letter>C	*>Letter>C	*>Letter>C	*>Letter>C	*>Letter>C	*>Letter>C	*>Letter>C	*>Letter>C	*>Letter>C
*>Label>Chorus	*>Label>Chorus	*>Label>Chorus	*>Label>Chorus	*>Label>Chorus	*>Label>Chorus	*>Label>Chorus	*>Label>Chorus	*>Label>Chorus	*>Label>Chorus
1B-M	B-:maj	8r	.	8r	.	8b-]	.	112.238	newline
.	.	8B-	Ob-	8B-	Ob-	8b-	.	.	.
.	.	8d	-la-	8d	-la-	4cc	c	.	.
.	.	8f	-da	8f	-da	.	C	.	.
.	.	8r	.	8r	.	8dd	.	.	.
.	.	8B-	Life	8B-	Life	8b-	.	.	.
.	.	8d	goes	8d	goes	8r	.	.	.
.	.	[8f	on	[8f	on	[8cc	C	.	.
=55	=55	=55	=55	=55	=55	=55	=55	=55	=55
2Dm	D:min/b3	4.f]	_	4.f]	_	8cc]	.	113.669	.
.	.	.	.	.	.	8b-	.	.	.
.	.	.	.	.	.	4a	.	.	.
.	.	4b-	bra	4.b-	bra	.	C	.	.
2Gm	G:min	.	.	.	.	8b-	.	115.1	.
.	.	8r	.	.	.	8g	.	.	.
.	.	8r	.	8r	.	8r	.	.	.
.	.	[8f	La	[8f	La	[8B-	C	.	.
=56	=56	=56	=56	=56	=56	=56	=56	=56	=56
2B-M	B-:maj	8f]	_	8f]	_	8B-]	.	116.531	newline
.	.	16e-	la	16e-	la	8B-	c	.	.
.	.	16d	_	16d	_	.	.	.	.
.	.	8d	how	8d	how	4d	.	.	.
.	.	8e-	the	8e-	the	.	.	.	.
2FM	F:maj	8d	life	8d	life	8f	.	117.597	.
.	.	8c	goes	8c	goes	8f	.	.	.
.	.	8B-	_	8B-	_	8r	.	.	.
.	.	[8B-	on	[8B-	on	8B-	C	.	.
=57	=57	=57	=57	=57	=57	=57	=57	=57	=57
1B-M	B-:maj	8B-]	_	8B-]	_	8r	.	118.664	.
.	.	8r	.	8r	.	8B-	.	.	.
.	.	8r	.	4r	.	4d	.	.	.
.	.	4f	Hey	.	.	.	.	.	.
.	.	.	.	8r	.	8f	.	.	.
.	.	8f	Ob-	8B-	Ob-	4g	.	.	.
.	.	8f	-la-	8d	-la-	.	c	.	.
.	.	8f	-di	8f	-di	[8b-	.	.	.
=58	=58	=58	=58	=58	=58	=58	=58	=58	=58
1B-M	B-:maj	8r	.	8r	.	8b-]	.	120.796	newline
.	.	8B-	Ob-	8B-	Ob-	8b-	.	.	.
.	.	8d	-la-	8d	-la-	4cc	c	.	.
.	.	8f	-da	8f	-da	.	C	.	.
.	.	8r	.	8r	.	8dd	.	.	.
.	.	8B-	Life	8B-	Life	8b-	.	.	.
.	.	8d	goes	8d	goes	8r	.	.	.
.	.	[8f	on	[8f	on	[8cc	C	.	.
=59	=59	=59	=59	=59	=59	=59	=59	=59	=59
2Dm	D:min/b3	4.f]	_	4.f]	_	8cc]	.	122.203	.
.	.	.	.	.	.	8b-	.	.	.
.	.	.	.	.	.	4a	.	.	.
.	.	4b-	bra	4b-	bra	.	C	.	.
2Gm	G:min	.	.	.	.	8b-	.	123.61	.
.	.	8r	.	8r	.	8g	.	.	.
.	.	8r	.	8r	.	8r	.	.	.
.	.	[8f	La	[8f	La	[8B-	C	.	.
=60	=60	=60	=60	=60	=60	=60	=60	=60	=60
2B-M	B-:maj	8f]	_	8f]	_	8B-]	.	125.017	newline
.	.	16e-	la	16e-	la	8B-	c	.	.
.	.	16d	_	16d	_	.	.	.	.
.	.	8d	how	8d	how	4d	.	.	.
.	.	8e-	the	8e-	the	.	.	.	.
2FM	F:maj	8d	life	8d	life	8f	.	126.078	.
.	.	8c	goes	8c	goes	8f	.	.	.
.	.	8B-	_	8B-	_	8r	.	.	.
.	.	[8B-	on	[8B-	on	8B-	C	.	.
=61	=61	=61	=61	=61	=61	=61	=61	=61	=61
1B-M	B-:maj	8B-]	_	8B-]	_	1r	.	127.14	.
.	.	8r	.	8r	.	.	.	.	.
.	.	4r	.	4r	.	.	.	.	.
.	.	2r	.	2r	.	.	.	.	.
=62	=62	=62	=62	=62	=62	=62	=62	=62	=62
*>Letter>D	*>Letter>D	*>Letter>D	*>Letter>D	*>Letter>D	*>Letter>D	*>Letter>D	*>Letter>D	*>Letter>D	*>Letter>D
*>Label>Bridge	*>Label>Bridge	*>Label>Bridge	*>Label>Bridge	*>Label>Bridge	*>Label>Bridge	*>Label>Bridge	*>Label>Bridge	*>Label>Bridge	*>Label>Bridge
1E-M	E-:maj	8r	.	1r	.	1r	.	129.262	newline
.	.	16B-	In	.	.	.	.	.	.
.	.	16B-	a	.	.	.	.	.	.
.	.	16e-	cou-	.	.	.	.	.	.
.	.	16e-	-ple	.	.	.	.	.	.
.	.	8f	of	.	.	.	.	.	.
.	.	4g	years	.	.	.	.	.	.
.	.	8f	they	.	.	.	.	.	.
.	.	8g	have	.	.	.	.	.	.
=63	=63	=63	=63	=63	=63	=63	=63	=63	=63
1E-M	E-:maj	8b-	built	1r	.	1r	.	131.371	.
.	.	8r	.	.	.	.	.	.	.
.	.	8e-	a	.	.	.	.	.	.
.	.	8g	home	.	.	.	F	.	.
.	.	8r	.	.	.	.	.	.	.
.	.	4B-	sweet	.	.	.	.	.	.
.	.	8d	home	.	.	.	F	.	.
=64	=64	=64	=64	=64	=64	=64	=64	=64	=64
2B-M	B-:maj	1r	.	1r	.	8d	.	133.48	newline
.	.	.	.	.	.	4d	.	.	.
.	.	.	.	.	.	8d	.	.	.
2B-M	B-:sus4(9)	.	.	.	.	8c	.	134.554	.
.	.	.	.	.	.	4c	.	.	.
.	.	.	.	.	.	8c	.	.	.
=65	=65	=65	=65	=65	=65	=65	=65	=65	=65
2B-M	B-:maj	1r	.	1r	.	8B-	.	135.627	.
.	.	.	.	.	.	4B-	.	.	.
.	.	.	.	.	.	8B-	.	.	.
2B-Mm	B-:9	.	.	.	.	8A-	.	136.701	.
.	.	.	.	.	.	4A-	.	.	.
.	.	.	.	.	.	8A-	.	.	.
=66	=66	=66	=66	=66	=66	=66	=66	=66	=66
1E-M	E-:maj	8r	.	1r	.	1G	.	137.775	newline
.	.	16B-	With	.	.	.	.	.	.
.	.	16B-	a	.	.	.	.	.	.
.	.	16e-	cou-	.	.	.	.	.	.
.	.	16e-	-ple	.	.	.	.	.	.
.	.	8f	of	.	.	.	.	.	.
.	.	8g	kids	.	.	.	.	.	.
.	.	8r	.	.	.	.	.	.	.
.	.	8f	run-	.	.	.	.	.	.
.	.	8g	-ning	.	.	.	.	.	.
=67	=67	=67	=67	=67	=67	=67	=67	=67	=67
1E-M	E-:maj	8b-	in	1r	.	1r	.	139.873	.
.	.	8r	.	.	.	.	.	.	.
.	.	8e-	the	.	.	.	.	.	.
.	.	4g	yard	.	.	.	.	.	.
.	.	8r	.	.	.	.	.	.	.
.	.	8r	.	.	.	.	.	.	.
.	.	8B-	Of	.	.	.	.	.	.
=68	=68	=68	=68	=68	=68	=68	=68	=68	=68
1B-M	B-:maj/5	8d	Des-	1r	.	8r	.	141.97	newline
.	.	8d	-mond	.	.	8cc	.	.	.
.	.	8d	and	.	.	8b-	.	.	.
.	.	4e-	Mo-	.	.	8a	.	.	.
.	.	.	.	.	.	8g	.	.	.
.	.	4d	-lly	.	.	8f	.	.	.
.	.	.	.	.	.	8e-	.	.	.
.	.	16d	Jones	.	.	8d	F	.	.
.	.	16e-	_	.	.	.	.	.	.
=69	=69	=69	=69	=69	=69	=69	=69	=69	=69
1FMm	F:7	8d	_	1r	.	8c	.	144.058	.
.	.	4.c	_	.	.	8B-	.	.	.
.	.	.	.	.	.	8A	.	.	.
.	.	.	.	.	.	8G	.	.	.
.	.	8r	.	.	.	8F	.	.	.
.	.	8f	Hey	.	.	8E-	.	.	.
.	.	8c	_	.	.	8D	.	.	.
.	.	8d	Hap-	.	.	8C	.	.	.
=70	=70	=70	=70	=70	=70	=70	=70	=70	=70
*>Letter>B	*>Letter>B	*>Letter>B	*>Letter>B	*>Letter>B	*>Letter>B	*>Letter>B	*>Letter>B	*>Letter>B	*>Letter>B
*>Label>Verse	*>Label>Verse	*>Label>Verse	*>Label>Verse	*>Label>Verse	*>Label>Verse	*>Label>Verse	*>Label>Verse	*>Label>Verse	*>Label>Verse
1B-M	B-:maj	8r	.	1r	.	4BB-	.	146.145	newline
.	.	8d	-py	.	.	.	.	.	.
.	.	8d	e-	.	.	4r	.	.	.
.	.	8d	-ver	.	.	.	.	.	.
.	.	8d	af-	.	.	2r	.	.	.
.	.	8d	-ter	.	.	.	.	.	.
.	.	8c	in	.	.	.	.	.	.
.	.	8B-	the	.	.	.	.	.	.
=71	=71	=71	=71	=71	=71	=71	=71	=71	=71
1FMm	F:7	8A	mar-	1r	.	1r	.	148.302	.
.	.	8c	-ket	.	.	.	.	.	.
.	.	8r	.	.	.	.	.	.	.
.	.	4.c	place	.	.	.	A	.	.
.	.	8r	.	.	.	.	.	.	.
.	.	[8e-	Mo-	.	.	.	.	.	.
=72	=72	=72	=72	=72	=72	=72	=72	=72	=72
1FMm	F:7	8e-]	_	1r	.	1r	.	150.459	newline
.	.	8e-	-lly	.	.	.	.	.	.
.	.	8e-	lets	.	.	.	.	.	.
.	.	8e-	the	.	.	.	.	.	.
.	.	8e-	chil-	.	.	.	.	.	.
.	.	8e-	-dren	.	.	.	.	.	.
.	.	8d	lend	.	.	.	.	.	.
.	.	8c	a	.	.	.	.	.	.
=73	=73	=73	=73	=73	=73	=73	=73	=73	=73
1B-M	B-:maj	4B-	hand	1r	.	1r	B	152.587	.
.	.	4r	.	.	.	.	.	.	.
.	.	4r	.	.	.	.	.	.	.
.	.	8r	.	.	.	.	.	.	.
.	.	[8f	Des-	.	.	.	.	.	.
=74	=74	=74	=74	=74	=74	=74	=74	=74	=74
1B-M	B-:maj	8f]	_	1r	.	1r	.	154.715	newline
.	.	8f	-mond	.	.	.	.	.	.
.	.	8f	stays	.	.	.	.	.	.
.	.	8f	at	.	.	.	.	.	.
.	.	8f	home	.	.	.	.	.	.
.	.	8f	and	.	.	.	.	.	.
.	.	8e-	does	.	.	.	.	.	.
.	.	8d	his	.	.	.	.	.	.
=75	=75	=75	=75	=75	=75	=75	=75	=75	=75
1E-M	E-:maj	8e-	pre-	1r	.	1r	.	156.847	.
.	.	8f	-tty	.	.	.	.	.	.
.	.	8r	.	.	.	.	.	.	.
.	.	4g	face	.	.	.	A	.	.
.	.	8g	And	.	.	.	.	.	.
.	.	8f	in	.	.	.	.	.	.
.	.	8e-	the	.	.	.	.	.	.
=76	=76	=76	=76	=76	=76	=76	=76	=76	=76
2B-M	B-:maj	8d	eve-	1r	.	1r	.	158.98	newline
.	.	8d	-ning	.	.	.	.	.	.
.	.	8e-	she's	.	.	.	.	.	.
.	.	8d	a	.	.	.	.	.	.
2FMm	F:7	8c	sing-	.	.	.	.	160.041	.
.	.	8e-	-er	.	.	.	.	.	.
.	.	8d	with	.	.	.	.	.	.
.	.	16c	the	.	.	.	.	.	.
.	.	[16B-	band	.	.	.	B	.	.
=77	=77	=77	=77	=77	=77	=77	=77	=77	=77
1B-M	B-:maj	4B-]	_	2r	.	8r	.	161.101	.
.	.	.	.	.	.	8B-	.	.	.
.	.	8r	.	.	.	4d	.	.	.
.	.	8f	Yeah!	.	.	.	.	.	.
.	.	8r	.	8r	.	8f	.	.	.
.	.	8f	Ob-	8B-	Ob-	4g	.	.	.
.	.	8f	-la-	8d	-la-	.	c	.	.
.	.	8f	-di	8f	-di	[8b-	.	.	.
=78	=78	=78	=78	=78	=78	=78	=78	=78	=78
*>Letter>C2	*>Letter>C2	*>Letter>C2	*>Letter>C2	*>Letter>C2	*>Letter>C2	*>Letter>C2	*>Letter>C2	*>Letter>C2	*>Letter>C2
*>Label>Chorus	*>Label>Chorus	*>Label>Chorus	*>Label>Chorus	*>Label>Chorus	*>Label>Chorus	*>Label>Chorus	*>Label>Chorus	*>Label>Chorus	*>Label>Chorus
1B-M	B-:maj	8r	.	8r	.	8b-]	.	163.222	newline
.	.	8f	Ob-	8B-	Ob-	8b-	.	.	.
.	.	8f	-la-	8d	-la-	4cc	c	.	.
.	.	8f	-da	8f	-da	.	C	.	.
.	.	8r	.	8r	.	8dd	.	.	.
.	.	8B-	Life	8B-	Life	8b-	.	.	.
.	.	8d	goes	8d	goes	8r	.	.	.
.	.	[8f	on	[8f	on	[8cc	C	.	.
=79	=79	=79	=79	=79	=79	=79	=79	=79	=79
2Dm	D:min/b3	4.f]	_	4.f]	_	8cc]	.	164.671	.
.	.	.	.	.	.	8b-	.	.	.
.	.	.	.	.	.	4a	.	.	.
.	.	4.b-	bra	4.b-	bra	.	C	.	.
2Gm	G:min	.	.	.	.	8b-	.	166.12	.
.	.	.	.	.	.	8g	.	.	.
.	.	8r	.	8r	.	8r	.	.	.
.	.	[8f	La	[8f	La	[8B-	C	.	.
=80	=80	=80	=80	=80	=80	=80	=80	=80	=80
2B-M	B-:maj	8f]	_	8f]	_	8B-]	.	167.569	newline
.	.	16e-	la	16e-	la	8B-	c	.	.
.	.	16d	_	16d	_	.	.	.	.
.	.	8d	how	8d	how	4d	.	.	.
.	.	8e-	the	8e-	the	.	.	.	.
2FM	F:maj	8d	life	8d	life	8f	.	168.628	.
.	.	8c	goes	8c	goes	8f	.	.	.
.	.	8B-	_	8B-	_	8r	.	.	.
.	.	[8B-	on	[8B-	on	8B-	C	.	.
=81	=81	=81	=81	=81	=81	=81	=81	=81	=81
1B-M	B-:maj	8B-]	_	8B-]	_	8r	.	169.687	.
.	.	8r	.	8r	.	8B-	.	.	.
.	.	8r	.	4r	.	4d	.	.	.
.	.	4f	Hey!	.	.	.	.	.	.
.	.	.	.	8r	.	8f	.	.	.
.	.	8f	Ob-	8B-	Ob-	4g	.	.	.
.	.	8f	-la-	8d	-la-	.	c	.	.
.	.	8f	-di	8f	-di	[8b-	.	.	.
=82	=82	=82	=82	=82	=82	=82	=82	=82	=82
1B-M	B-:maj	8r	.	8r	.	8b-]	.	171.804	newline
.	.	8f	Oob-	8B-	Ob-	8b-	.	.	.
.	.	8f	-la-	8d	-la-	4cc	c	.	.
.	.	4f	-da	8f	-da	.	C	.	.
.	.	.	.	8r	.	8dd	.	.	.
.	.	8B-	Life	8B-	Life	8b-	.	.	.
.	.	8d	goes	8d	goes	8r	.	.	.
.	.	[8f	on	[8f	on	[8cc	C	.	.
=83	=83	=83	=83	=83	=83	=83	=83	=83	=83
2Dm	D:min/b3	4.f]	_	4.f]	_	8cc]	.	173.215	.
.	.	.	.	.	.	8b-	.	.	.
.	.	.	.	.	.	4a	.	.	.
.	.	4b-	bra	4b-	bra	.	C	.	.
2Gm	G:min	.	.	.	.	8b-	.	174.626	.
.	.	8r	.	8r	.	8g	.	.	.
.	.	8r	.	8r	.	8r	.	.	.
.	.	[8f	La	[8f	La	[8B-	C	.	.
=84	=84	=84	=84	=84	=84	=84	=84	=84	=84
2B-M	B-:maj	8f]	_	8f]	_	8B-]	.	176.037	newline
.	.	16e-	la	16e-	la	8B-	c	.	.
.	.	16d	_	16d	_	.	.	.	.
.	.	8d	how	8d	how	4d	.	.	.
.	.	8e-	the	8e-	the	.	.	.	.
2FM	F:maj	8d	life	8d	life	8f	.	177.108	.
.	.	8c	goes	8c	goes	8f	.	.	.
.	.	8B-	_	8B-	_	8r	.	.	.
.	.	[8B-	on	[8B-	on	8B-	C	.	.
=85	=85	=85	=85	=85	=85	=85	=85	=85	=85
1Gm	G:min	8B-]	_	8B-]	_	1r	.	178.179	.
.	.	8r	.	8r	.	.	.	.	.
.	.	4r	.	4r	.	.	.	.	.
.	.	4r	.	2r	.	.	.	.	.
.	.	16r	.	.	.	.	.	.	.
.	.	16g	And	.	.	.	.	.	.
.	.	16g	if	.	.	.	.	.	.
.	.	16g	you	.	.	.	.	.	.
=86	=86	=86	=86	=86	=86	=86	=86	=86	=86
*>Letter>E	*>Letter>E	*>Letter>E	*>Letter>E	*>Letter>E	*>Letter>E	*>Letter>E	*>Letter>E	*>Letter>E	*>Letter>E
*>Label>Coda	*>Label>Coda	*>Label>Coda	*>Label>Coda	*>Label>Coda	*>Label>Coda	*>Label>Coda	*>Label>Coda	*>Label>Coda	*>Label>Coda
1Gm	G:min	8b-	want	1r	.	1r	.	180.321	newline
.	.	8b-	some	.	.	.	.	.	.
.	.	16g	fun	.	.	.	.	.	.
.	.	16b-	_	.	.	.	.	.	.
.	.	8r	.	.	.	.	.	.	.
.	.	4.r	.	.	.	.	.	.	.
.	.	8g	Sing	.	.	.	.	.	.
=87	=87	=87	=87	=87	=87	=87	=87	=87	=87
2FM	F:maj	8f	Ob-	1r	.	1r	.	182.493	.
.	.	8e-	-La-	.	.	.	c	.	.
.	.	8d	-Di	.	.	.	.	.	.
.	.	8c	Bla-	.	.	.	C	.	.
2B-M	B-:maj	4B-	-Da	.	.	.	C	183.58	.
.	.	4r	.	.	.	.	.	.	.
=88	=88	=88	=88	=88	=88	=88	=88	=88	=88
1B-M;	B-:maj	r;	.	r;	.	r;	.	184.666	.
1r;	1r	r;	.	r;	.	r;	.	189.011	.
*-	*-	*-	*-	*-	*-	*-	*-	*-	*-
!!!BillboardChartDate: 1976/12/11
!!!BillboardPeak: 49
!!!BillboardWeeksOnChart: 7
!!!COC: The Beatles
!!!EMD: Second and Third choruses had rhythmic mistake 1Dm 1Gm (instead of 2Dm 2Gm). Fixed. -Nat
!!!ENC: Nathaniel Condit-Schultz
!!!EST: Awating manual error checking and editing.
!!!OTL: Ob-La-Di, Ob-La-Da
!!!RDF**chordsym: original McGill chord annotation + (implied pitch class set, with bass pitch in first position)
!!!RDF**harmony: **recip + pitch class of root + harmonic quality
!!!RDF**leadinstrument: original McGill primary instrumentation annotation
!!!RDF**phrase: newline = linebreak in original McGill transcription
!!!RDF**timestamp: McGill audio timestamp in seconds
!!!RDT: 2017/01/12/
!!!SampleActualRank: 49
!!!SampleID#: 1107
!!!SampleTargetRank: 49
!!!MBID: 5118f7b4-eafc-491a-9158-ee646dff2236
